X:132
T:The Civil Union (Marti & Jennifer's Wedding) 
R:hornpipe 
C: 2007, 2010 L.E. McCullough 
M:4/4
L:1/8
K:G 
(3def|:~g2fg (3efg dB|cdec dBGB|c~A3 B~G3|AG (3FGA de (3fed|
~g2fg (3efg dB|cdec dBGB|cdec (3Bcd ge|fdcA G2 (3def:|
|:~g3b agfd|ef (3gfe dBGB|cdec (3Bcd gd|^ceag (3fga ba|
~g3b agfd|ef (3gfe dBGB|~c3A (3Bcd ge|fdcA G2 (3def:|

